X:13711
T:Quadriglia
C:Basilio D'Amico
C:Balli popolari in Abruzzo II/16
M:6/8
L:1/8
K:G
Bce |def gfe |d2B d2g| f2e e2f| e2d Bce |\
def gfe| d2B d2g |fed cBA |G3:|!
|:ggg|f2e f2e|d2B d2d|c2A e2f|~e2d g2g|\
f2e f2e|d2B d2g|fed cBA|G3:|
